X:1
T:Title
%%score { ( 1 3 4 ) | ( 2 5 ) }
L:1/8
M:4/4
K:G
V:1 treble nm="Grand Piano"
V:3 treble 
V:4 treble 
V:2 bass 
V:5 bass 
V:1
 z4 z2 z[Q:1/4=104] D | G2 z D GB z2 | d>d [Fd][Fd] [Gd]2 z [GB] | [Ac]2 [Ac][Ac] B d2 B | %4
[M:7/8] [Ac]2 [GB]2 [FA]2 z |[M:1/8] D |[M:4/4] G2 DG B2 GB |[M:7/8] d2 e [Ad] [Gd]3 | %8
[M:1/8] [DGB] |[M:4/4] [DAc]2 [FA][DFd] [DGd] [DGB]2 [CFA] |[M:7/8] [B,G][B,G][CEG] [G,CG] [B,G]3 | %11
[M:1/8] B |[M:4/4] [Bd]3 d .[Bd]2 z B | [Ac]2 [Bd]c [GB]4 | z4 z .d3 |[M:7/8] [Ac]2 [Bd] c [GB]3 | %16
[M:1/8] D |[M:4/4] G2 DG B2 GB |[M:7/8] d2 e [Ad] [Gd]3 |[M:1/8] [DGB] | %20
[M:4/4] [DAc]2 [FA][DFd] [DGd] [DGB]2 [CFA] |[M:15/8] [B,G][B,G][CEG][G,CG] [B,G]2- [B,G] z2 z6 |] %22
V:2
 z4 z2 z D, | G,2 z D, G,B, z2 | [G,B,G]>[G,B,G][K:bass] [D,A,][D,C] [G,B,]2 z [G,D] | %3
 [D,D]2 [D,D][D,D][K:treble] [G,DG] [G,B,G]2 [G,DG] |[M:7/8][K:bass] [F,D]2 [G,D]2 [D,D]2 z | %5
[M:1/8] [F,C] |[M:4/4] [G,B,D]2 [G,B,][K:treble][G,B,D] [G,DG]2 [G,B,][G,DG] | %7
[M:7/8] [G,B,G]2 [G,CG][K:bass] [F,C] [G,B,]3 |[M:1/8] G, |[M:4/4] D,2 DC B, G,2 D, | %10
[M:7/8] G,G,C, E, G,3 |[M:1/8] G |[M:4/4] G,,2 z[K:treble] B z G2 G | D,,2 z A G,,2 z G | %14
 G,,2 z G z[K:treble] B2 G |[M:7/8][K:bass] D,,2 z A G,,2 G, |[M:1/8] [F,C] | %17
[M:4/4] [G,B,D]2 [G,B,][G,B,D][K:treble] [G,DG]2 [G,B,][G,DG] | %18
[M:7/8] [G,B,G]2 [G,CG][K:bass] [F,C] [G,B,]3 |[M:1/8] G, |[M:4/4] D,2 DC B, G,2 D, | %21
[M:15/8] G,G,C,E, G,2- G, z2 z6 |] %22
V:3
 x8 | x8 | x8 | x8 |[M:7/8] x7 |[M:1/8] x |[M:4/4] x8 |[M:7/8] x7 |[M:1/8] x |[M:4/4] x8 | %10
[M:7/8] x7 |[M:1/8] x |[M:4/4] z4 z .B3 | x8 | [GB]2 [GB]B .[GB]2 z B |[M:7/8] x7 |[M:1/8] x | %17
[M:4/4] x8 |[M:7/8] x7 |[M:1/8] x |[M:4/4] x8 |[M:15/8] x15 |] %22
V:4
 x8 | x8 | x8 | x8 |[M:7/8] x7 |[M:1/8] x |[M:4/4] x8 |[M:7/8] x7 |[M:1/8] x |[M:4/4] x8 | %10
[M:7/8] x7 |[M:1/8] x |[M:4/4] z4 z2 G,2 | x8 | z4 z2 G,2 |[M:7/8] x7 |[M:1/8] x |[M:4/4] x8 | %18
[M:7/8] x7 |[M:1/8] x |[M:4/4] x8 |[M:15/8] x15 |] %22
V:5
 x8 | x8 | x2[K:bass] x6 | x4[K:treble] x4 |[M:7/8][K:bass] x7 |[M:1/8] x | %6
[M:4/4] x3[K:treble] x5 |[M:7/8] x3[K:bass] x4 |[M:1/8] x |[M:4/4] x8 |[M:7/8] x7 |[M:1/8] x | %12
[M:4/4] z2 G,2[K:treble] G,,2 z2 | z2 D,2 z2 G,2 | z2 G,2 G,,2[K:treble] z2 | %15
[M:7/8][K:bass] z2 D,2 z z2 |[M:1/8] x |[M:4/4] x4[K:treble] x4 |[M:7/8] x3[K:bass] x4 |[M:1/8] x | %20
[M:4/4] x8 |[M:15/8] x15 |] %22

